public/images/logos/tampa-bay-lightning.svg

<svg viewBox="0 0 24 16" xmlns="http://www.w3.org/2000/svg"><g fill="#002868"><path d="m20.076 7.28c0-1.638-1.019-3.253-2.825-4.245l-.692.55c1.234.777 1.962 1.938 1.962 3.257 0 3.076-3.802 5.862-8.032 5.862-.435 0-.86-.031-1.271-.093l-1.428 1.057c.901.306 1.907.467 2.958.467 5.022 0 9.328-3.391 9.328-6.855"/><path d="m13.688 8.425-2.583.505 5.731-4.71-2.668.358 5.186-4.113-6.037 1.589c-.079-.002-.159-.003-.24-.003-4.947 0-9.152 3.362-9.152 6.91 0 1.74.938 3.125 2.391 4.022l-2.231 2.552zm-9.074.012c0-3.182 3.98-5.863 8.033-5.863.027 0 .055.001.083.001l-3.918 4.381 2.253-.356-4.438 4.293 1.8-.325-1.257 1.437c-1.528-.724-2.556-1.971-2.556-3.568m13.086 3.639h.1v.3h.036v-.3h.104v-.036h-.24zm.433.237-.086-.273h-.058v.336h.036v-.286l.09.286h.036l.09-.286v.286h.036v-.336h-.058z"/></g></svg>

<svg xmlns="http://www.w3.org/2000/svg" viewBox="0 0 24 16"><g fill="#002868"><path d="M20.076,7.28c0-1.638-1.019-3.253-2.825-4.245l-0.692,0.55c1.234,0.777,1.962,1.938,1.962,3.257 c0,3.076-3.802,5.862-8.032,5.862c-0.435,0-0.86-0.031-1.271-0.093l-1.428,1.057c0.901,0.306,1.907,0.467,2.958,0.467 C15.77,14.135,20.076,10.744,20.076,7.28"/><path d="M13.688 8.425L11.105 8.93l5.731-4.71-2.668.358 5.186-4.113-6.037 1.589c-.079-.002-.159-.003-.24-.003-4.947 0-9.152 3.362-9.152 6.91 0 1.74.938 3.125 2.391 4.022l-2.231 2.552L13.688 8.425zM4.614 8.437c0-3.182 3.98-5.863 8.033-5.863.027 0 .055.001.083.001L8.812 6.956 11.065 6.6l-4.438 4.293 1.8-.325L7.17 12.005C5.642 11.281 4.614 10.034 4.614 8.437M17.7 12.076L17.8 12.076 17.8 12.376 17.836 12.376 17.836 12.076 17.94 12.076 17.94 12.04 17.7 12.04zM18.133 12.313L18.047 12.04 17.989 12.04 17.989 12.376 18.025 12.376 18.025 12.09 18.115 12.376 18.151 12.376 18.241 12.09 18.241 12.376 18.277 12.376 18.277 12.04 18.219 12.04z"/></g></svg>
